X:1
T:Golden Keyboard, The
C:Martin Mulhaire
R:reel
D:Matt Molloy &amp; Sean Keane: Contentment is Wealth.
M:4/4
L:1/8
K:Edor
BGEF GFGA|B2gB fBeB|BGEF GBAG|(3FED AD BDAF|
~E3F ~G3A|B2gB fBec|d2dc dBAF|DFAF GEE2:|
Be~e2 Beed|Beec dBAc|dA~A2 fA~A2|dfec dBAF|
~E3F GFGA|B2gB fBec|d2dc dBAF|DFAF GEE2:|
</abc>
